public/static/icons/ic_notification_shipping.svg

<svg height="24" viewBox="0 0 24 24" width="24" xmlns="http://www.w3.org/2000/svg" xmlns:xlink="http://www.w3.org/1999/xlink"><linearGradient id="a" x1="14.104%" x2="85.896%" y1="0%" y2="100%"><stop offset="0" stop-color="#ffe16a"/><stop offset="1" stop-color="#b78103"/></linearGradient><g fill="none" fill-rule="evenodd" transform="translate(0 1)"><path d="m15.1110698 8.30009302h4.3585116c.3817736 0 .7460423.16013285 1.004093.44148838l3.5106977 3.8249302v4.8429768c0 .361502-.1435207.7082149-.3991412.9638355-.2556206.2556205-.6023335.3991412-.9638356.3991412h-1.0733023c0-1.3171606-1.0677696-2.3849302-2.3849302-2.3849302s-2.3849302 1.0677696-2.3849302 2.3849302h-1.6671628z" fill="url(#a)"/><circle cx="19.163" cy="18.772" fill="#7a4f01" r="2.385"/><path d="m15.1110698 12.5665116v6.2059535h-7.25860468c0-1.3173147-1.06789458-2.3852093-2.38520931-2.3852093-1.31731472 0-2.3852093 1.0678946-2.3852093 2.3852093h-1.70344186c-.36150206 0-.70821494-.1435207-.96383551-.3991412-.25562056-.2556206-.39914125-.6023335-.39914125-.9638355v-11.37934887c0-.36150206.14352069-.70821494.39914125-.9638355.25562057-.25562056.60233345-.39914126.96383551-.39914126h1.47851163c.08500164 2.4030825 2.05774024 4.30727527 4.46232558 4.30727527s4.37732394-1.90419277 4.46232554-4.30727527h1.9663256c.7527258 0 1.3629768.61025103 1.3629768 1.36297676z" fill="#b78103"/><path d="m11.7845581 4.51702326c0 .05023255-.0005581.10046511-.0027907.15013953-.0850016 2.40308248-2.0577402 4.30727525-4.46232554 4.30727525s-4.37732394-1.90419277-4.46232558-4.30727525c-.00223256-.04967442-.0027907-.09990698-.0027907-.15013953 0-2.46601563 1.99910065-4.46511628 4.46511628-4.46511628s4.46511624 1.99910065 4.46511624 4.46511628z" fill="#74caff" stroke="#74caff"/><path d="m5.46697674 16.3875349c1.3171606 0 2.38493024 1.0677696 2.38493024 2.3849302s-1.06776964 2.3849302-2.38493024 2.3849302c-1.31716059 0-2.38493023-1.0677696-2.38493023-2.3849302 0-1.3171478 1.06778241-2.3849302 2.38493023-2.3849302z" fill="#7a4f01"/><path d="m8.8096186 6.30306977c-.09917416.00012442-.19465699-.03760557-.26695813-.10548837l-1.49023256-1.39534884c-.0788836-.07387832-.12362791-.17713235-.12362791-.2852093v-2.89562791c0-.21577637.17492131-.39069768.39069767-.39069768.21577637 0 .39069768.17492131.39069768.39069768v2.72651163l1.36654884 1.27953488c.11707405.10960812.15527467.27962928.09633971.42878338-.05893496.14915409-.20303407.2471236-.36340948.2471236z" fill="#0c53b7"/></g></svg>

<svg xmlns="http://www.w3.org/2000/svg" width="24" height="24" viewBox="0 0 24 24">
  <defs>
    <linearGradient id="ic_notification_shipping-a" x1="14.104%" x2="85.896%" y1="0%" y2="100%">
      <stop offset="0%" stop-color="#FFE16A"/>
      <stop offset="100%" stop-color="#B78103"/>
    </linearGradient>
  </defs>
  <g fill="none" fill-rule="evenodd" transform="translate(0 1)">
    <path fill="url(#ic_notification_shipping-a)" d="M15.1110698,8.30009302 L19.4695814,8.30009302 C19.851355,8.30009302 20.2156237,8.46022587 20.4736744,8.7415814 L23.9843721,12.5665116 L23.9843721,17.4094884 C23.9843721,17.7709904 23.8408514,18.1177033 23.5852309,18.3733239 C23.3296103,18.6289444 22.9828974,18.7724651 22.6213953,18.7724651 L21.548093,18.7724651 C21.548093,17.4553045 20.4803234,16.3875349 19.1631628,16.3875349 C17.8460022,16.3875349 16.7782326,17.4553045 16.7782326,18.7724651 L15.1110698,18.7724651 L15.1110698,8.30009302 Z"/>
    <circle cx="19.163" cy="18.772" r="2.385" fill="#7A4F01"/>
    <path fill="#B78103" d="M15.1110698,12.5665116 L15.1110698,18.7724651 L7.85246512,18.7724651 C7.85246512,17.4551504 6.78457054,16.3872558 5.46725581,16.3872558 C4.14994109,16.3872558 3.08204651,17.4551504 3.08204651,18.7724651 L1.37860465,18.7724651 C1.01710259,18.7724651 0.670389707,18.6289444 0.414769144,18.3733239 C0.159148582,18.1177033 0.0156278887,17.7709904 0.0156278887,17.4094884 L0.0156278887,6.03013953 C0.0156278887,5.66863747 0.159148582,5.32192459 0.414769144,5.06630403 C0.670389707,4.81068347 1.01710259,4.66716277 1.37860465,4.66716277 L2.85711628,4.66716277 C2.94211792,7.07024527 4.91485652,8.97443804 7.31944186,8.97443804 C9.7240272,8.97443804 11.6967658,7.07024527 11.7817674,4.66716277 L13.748093,4.66716277 C14.5008188,4.66716277 15.1110698,5.2774138 15.1110698,6.03013953 L15.1110698,12.5665116 Z"/>
    <path fill="#74CAFF" stroke="#74CAFF" d="M11.7845581,4.51702326 C11.7845581,4.56725581 11.784,4.61748837 11.7817674,4.66716279 C11.6967658,7.07024527 9.7240272,8.97443804 7.31944186,8.97443804 C4.91485652,8.97443804 2.94211792,7.07024527 2.85711628,4.66716279 C2.85488372,4.61748837 2.85432558,4.56725581 2.85432558,4.51702326 C2.85432558,2.05100763 4.85342623,0.0519069767 7.31944186,0.0519069767 C9.78545749,0.0519069767 11.7845581,2.05100763 11.7845581,4.51702326 L11.7845581,4.51702326 Z"/>
    <path fill="#7A4F01" d="M5.46697674,16.3875349 C6.78413734,16.3875349 7.85190698,17.4553045 7.85190698,18.7724651 C7.85190698,20.0896257 6.78413734,21.1573953 5.46697674,21.1573953 C4.14981615,21.1573953 3.08204651,20.0896257 3.08204651,18.7724651 C3.08204651,17.4553173 4.14982892,16.3875349 5.46697674,16.3875349 Z"/>
    <path fill="#0C53B7" d="M8.8096186,6.30306977 C8.71044444,6.30319419 8.61496161,6.2654642 8.54266047,6.1975814 L7.05242791,4.80223256 C6.97354431,4.72835424 6.9288,4.62510021 6.9288,4.51702326 L6.9288,1.62139535 C6.9288,1.40561898 7.10372131,1.23069767 7.31949767,1.23069767 C7.53527404,1.23069767 7.71019535,1.40561898 7.71019535,1.62139535 L7.71019535,4.34790698 L9.07674419,5.62744186 C9.19381824,5.73704998 9.23201886,5.90707114 9.1730839,6.05622524 C9.11414894,6.20537933 8.97004983,6.30334884 8.80967442,6.30334884 L8.8096186,6.30306977 Z"/>
  </g>
</svg>
